X:1
T:test7
T:Fridericus Rex Grenadier-Marsch
T:Fredinan Radeck 
%%score { 1 | 2 }
L:1/8
M:2/2
K:G
V:1 treble nm="Piano" snm="Pno."
V:2 bass 
V:1
!f! G4 [Ge]3 [Ge] | .[Gd]2 B2 G2 B2 | .d2 z2 f3 e/f/ | .g2 z4 z2 |: .[db]2 z2 .^a2 z2 | %5
 b2 z2 d3 ^c | .d2 .b2 .a2 .g2 | .f2 .g2 !>!a4 | .[dc']2 z2 .b2 z2 | .c'2 z2 d3 ^e | %10
 .d2 .e'2 .d'2 .=c'2 | .^c'2 .d'2 !>!b3 a/g/ | [db]2 z2 .^a2 z2 | .b2 z2 d3 ^c |1 .d2 .b2 .a2 .g2 | %15
 .f2 .g2 !>!a4 | !>![fad']4 !>![f=b]4 | [^fa]2 f'2 .d'2 b2 | a2 .^g2 .=g2 e2 | d2 z2 z4 :|2 %20
 .d2 .b2 .c'2 .b2 | .[eb]2 .[ea]2 !>!_e4 | d4 cd.g.a | .b2 .e'2 d'4- | d'd^cd =c'2 .ba | %25
 g2 [Bdg]2 [Bdg]2 z2 |: [dfa]4- [dfa].f.d.f | .a2 z2 .[Af]2 z2 | .e2 z2 .d2 z2 | [Gd]6 ^c2 | %30
 [A^cg]4- [Acg].e.c.e | .g2 z2 .[Ge]2 z2 | .d2 z2 .^c2 z2 | [FB]4 A2 z2 | [dfa]4- [dfa].f.d.f | %35
 .a2 z2 .f2 z2 | .a2 z2 .g2 z2 | [Bf]4 e2 z2 | e4- .e.d.^c.B |[K:C] .B2 ._B2 A4- | %40
 A2 ^GA .^f2 .e2 | .d2 [^FAd]2 [FAd]2 z2 :| !>!G6 GG | G2 G2 G2 G2 | G2 z2 !>![GBf]3 [GB=f] | %45
 [GBf]2 z2 .G2 .G2 || [Ec]4 [Ec]4 |[K:C] [Ec]4 .d2 .e2 | [Bd]2 c2 .B2 .A2 | G2 z2 G4 | %50
 [Bd]4 [Bd]4 | [Bd]4 .e2 .f2 | .[eg]2 f2 .e2 .d2 | c2 z2 !>!c'4 | a2 ff f2 f2 | f2 a2 c'2 a2 | %56
 g2 f2 e2 d2 |[K:C] g2 z2 g4 | a2 g2 f2 e2 | d4 e2 f2 | g2 f2 e2 d2 | c4 [ca]3 g | [_Bg]4 [Af]4 | %63
 [Af]4 [Af]2 _e2 | [A_e]4 [_Bd]3 [Bd] | [_Bd]4 [db]3 a | [ca]4 [_Bg]4 | [_Bg]4 [=Bg]3 g | %68
 !>![Bf]4 [ce]4 | [ce]4 [eg]4 | [dg]3 [dg] [dg]2 [dg]2 | [^cg]4 [ca]2 e2 | [dg]4 [df]2 [df]2 | %73
 [df]4 f4 | f4 e2 d2 | .c2 .c2{c} f2 .a2 | _b4 g4 | f4 !>!f4 | [df]4 e3 d | [Ac]4 f3 a | %80
 [g_b]4 [eg]4 | f4 .G2 G2 | [EGc]4 [EGc]4 | [EGc]4 .[Gd]2 .[ce]2 | [Bd]2 [Ac]2 .[GB]2 .A2 | %85
 G2 z2 G4 | [GBd]4 [GBd]4 | [GBd]4 .[ce]2 .[df]2 | [eg]2 [df]2 .[ce]2 .d2 | c2 z2 c4 | %90
 [FA]2 FF .F2 F2 | F2 A2 c2 A2 | [EG]2 F2 E2 D2 | E2 z2 !>![ce]4 | [fa]2 [eg]2 .[df]2 .[ce]2 | %95
 [Bd]4 [ce]2 [df]2 | [eg]2 [df]2 .[ce]2 [Bd]2 | c2 GG G2 [FGB]2 | [EGc]2 GG G2 [FGB]2 | %99
 [EGc]2 z2 [Ec]3 [EGc] | [EGc]2 z2 z4 |] %101
V:2
 [G,B,]4 [^C,_B,]4 | .[D,B,]2 z2 .G,2 .B,2 | .D2 z2 [D,A,C]4 | z8 |: G,2 [B,D]2 D,2 [B,D]2 | %5
 G,2 [B,D]2 D,2 [B,D]2 | G,2 [B,D]2 D,2 [B,D]2 | A,2 [CD]2 D,2 [CD]2 | A,2 [CD]2 D,2 [CD]2 | %9
 A,2 [CD]2 D,2 [CD]2 | A,2 [CD]2 D,2 [CD]2 | G,2 [B,D]2 G,2 [B,D]2 | G,2 [B,D]2 G,2 [B,D]2 | %13
 G,2 [B,D]2 D,2 [B,D]2 |1 G,2 [B,D]2 D,2 [B,D]2 | A,2 D2 D,2 [F,A,D]2 | !>![F,A,D]4 !>![^G,B,D]4 | %17
 [A,D]2 z2 .A,,2 .D,2 | ^C,2 [=G,A,]2 A,,2 [G,A,]2 | [D,F,]2 .^C2 .=C2 .A,2 :|2 %20
 G,2 [B,D]2 D,2 [B,D]2 | C,2 z2 !>![C,B,]4 | [D,G,B,]4 [D,G,B,]4 | B,,2 [G,B,]2 D,2 [G,B,]2 | %24
 !>![D,F,C]4 !>![D,F,C]4 | [G,B,]2 [G,B,D]2 [G,B,D]2 z2 |: D,F,A,F, D,2 [F,A,]2 | %27
 F,2 [F,A,]2 A,,2 [F,A,]2 | D,2 [F,A,]2 A,,2 [F,A,]2 | E,2 [G,A,]2 A,,2 [G,A,]2 | %30
 A,,^C,E,C, A,,2 [G,A,]2 | A,,2 [G,A,]2 ^C,2 [G,A,]2 | E,2 [G,A,]2 A,,2 [G,A,]2 | %33
 D,2 [F,A,]2 A,,2 [G,B,]2 | D,F,A,F, D,2 [F,A,]2 | D,2 [F,A,]2 A,,2 [F,A,]2 | %36
 D,2 [F,A,]2 D,2 [F,^A,D]2 | G,2 [B,E]2 G,2 [B,E]2 | [^G,B,=F]4 [G,B,F]4 | %39
[K:C] .[A,D^F]2 .[A,DF]2 [A,DF]4 | [A,^CG]2 z2 A,,2 [G,A,]2 | .[D,^F,]2 .[D,A,]2 .[D,A,]2 z2 :| %42
 !>!G,6 G,G, | G,2 G,2 G,2 G,2 | G,2 z2 !>![G,D]3 [G,D] | !>![G,D]2 z2 z4 || %46
 C,2 [E,G,]2 C,2 [E,G,]2 |[K:C] C,2 [E,G,]2 C,2 [E,G,]2 | C,2 [E,G,]2 C,2 [E,G,]2 | %49
 G,,2 [G,B,]2 [G,B,]2 [G,B,]2 | G,,2 [D,G,]2 G,,2 [D,G,]2 | G,,2 [D,G,]2 G,,2 [D,G,]2 | %52
 G,,2 [D,G,]2 G,,2 [D,G,]2 | C,2 [E,C]2 [E,C]2 [E,C]2 | [F,A,]4 .[F,A,]2 .[F,A,]2 | %55
 [F,A,]4 .[F,A,]2 .[F,A,]2 | [E,G,]4 .[E,G,]2 .[E,G,]2 |[K:C] .[E,G,]2 z2 [C,G,]4 | F,4 F,,2 F,,2 | %59
 G,,4 G,2 G,2 | [C,G,]4 [C,G,]2 [C,F,]2 | [C,E,]4 z4 | F,2 [A,C]2 F,2 [G,C]2 | %63
 F,2 [A,C]2 F,2 [G,C]2 | _B,,2 [F,_B,]2 B,,2 [F,B,]2 | _B,,2 [F,_B,]2 B,,2 [F,B,]2 | %66
 G,2 [_B,D]2 G,2 [B,D]2 | G,2 [_B,D]2 G,2 [B,D]2 | C,2 [G,C]2 C,2 [G,C]2 | C,2 [G,C]2 C,2 [G,C]2 | %70
 _B,,2 [D,G,]2 B,,2 [D,G,]2 | A,,2 [D,G,]2 A,,2 [E,A,]2 | D,2 [F,A,]2 F,2 [F,A,]2 | %73
 D,2 [F,A,]2 [F,A,]2 [F,A,]2 | .[_B,,D,G,]2 .[B,,D,G,]2 .[B,,D,G,]2 z2 | %75
 .[C,F,A,]2 .[C,F,A,]2 .[C,F,A,]2 z2 | .[C,E,_B,]2 .[C,E,B,]2 .[C,E,B,]2 z2 | [F,A,]4 !>!F,4 | %78
 _B,,2 [D,F,]2 B,,2 [D,F,]2 | C,2 [F,A,]2 C,2 [F,A,]2 | C,2 [E,_B,]2 C,2 [E,B,]2 | %81
 [F,A,]4 .G,2 .G,2 | C,2 [E,G,]2 C,2 [E,G,]2 | C,2 [E,G,]2 C,2 [E,G,]2 | %84
 G,,2 [D,G,]2 G,,2 [D,G,]2 | G,,2 [D,G,]2 G,,2 [D,G,]2 | G,,2 [D,G,]2 G,,2 [D,G,]2 | %87
 G,,2 [D,G,]2 G,,2 [D,G,]2 | C,2 [E,G,]2 C,2 [E,G,]2 | C,2 [E,G,]2 !>!C,4 | %90
 [F,A,]4 .[F,A,]2 .[F,A,]2 | [F,A,]4 .[F,A,]2 .[F,A,]2 | [C,G,]4 .[C,G,]2 .[C,G,]2 | %93
 [C,G,]2 z2 !>![C,G,]4 | F,4 .F,,2 .F,,2 | G,,4 .G,2 .G,2 | [C,G,]4 .[C,G,]2 .[C,F,]2 | %97
 [C,E,]2 G,G, G,2 !>!G,,2 | [C,E,]2 G,G, G,2 !>!G,,2 | A,,2 z2 !>![C,G,]3 [C,G,] | %100
 !>![C,G,]2 z2 z4 |] %101

